src/assets/filled/Blur.svg

<svg width="24" height="24" viewBox="0 0 24 24"  xmlns="http://www.w3.org/2000/svg">
<path d="M13.47 7.41012L15.93 6.20012C16.23 6.05012 16.31 5.66012 16.08 5.42012C15.19 4.44012 14.29 3.62012 13.57 3.00012C13.24 2.72012 12.75 2.95012 12.75 3.38012V6.96012C12.75 7.33012 13.14 7.57012 13.47 7.41012Z" />
<path d="M12.75 19.7399V21.3899C12.75 21.6899 13.02 21.9399 13.32 21.8899C16.05 21.4399 18.33 19.6099 19.41 17.1499C19.6 16.7299 19.14 16.3099 18.72 16.5099L13.03 19.2999C12.86 19.3799 12.75 19.5499 12.75 19.7399Z" />
<path d="M11.25 3.36012C11.25 2.93012 10.76 2.70012 10.43 2.97012C8.06997 4.95012 3.87997 9.12012 3.89997 13.9001C3.89997 17.9201 6.83997 21.2501 10.68 21.8901C10.98 21.9401 11.25 21.6901 11.25 21.3901V3.36012Z" />
<path d="M13.44 12.4699L18.73 10.2499C19 10.1299 19.13 9.81995 19 9.55995C18.63 8.82995 18.2 8.11995 17.73 7.45995C17.59 7.25995 17.33 7.19995 17.11 7.29995L13.02 9.28995C12.85 9.36995 12.74 9.54994 12.74 9.73994V12.0099C12.75 12.3599 13.11 12.6099 13.44 12.4699Z" />
<path d="M19.83 14.3102C19.99 14.2302 20.09 14.0802 20.09 13.9102C20.09 13.2702 20.01 12.6402 19.87 12.0202C19.8 11.7202 19.47 11.5602 19.19 11.6802L13.05 14.3002C12.87 14.3802 12.75 14.5602 12.75 14.7602V16.9602C12.75 17.3302 13.14 17.5702 13.47 17.4102L19.37 14.5402L19.83 14.3102Z" />
</svg>

<?xml version="1.0" encoding="UTF-8"?>
<svg width="24" height="24" viewBox="0 0 24 24" xmlns="http://www.w3.org/2000/svg">
 <path d="m13.47 7.4101 2.46-1.21c0.3-0.15 0.38-0.54 0.15-0.78-0.89-0.98-1.79-1.8-2.51-2.42-0.33-0.28-0.82-0.05-0.82 0.38v3.58c0 0.37 0.39 0.61 0.72 0.45z"/>
 <path d="m12.75 19.74v1.65c0 0.3 0.27 0.55 0.57 0.5 2.73-0.45 5.01-2.28 6.09-4.74 0.19-0.42-0.27-0.84-0.69-0.64l-5.69 2.79c-0.17 0.08-0.28 0.25-0.28 0.44z"/>
 <path d="m11.25 3.3601c0-0.43-0.49-0.66-0.82-0.39-2.36 1.98-6.55 6.15-6.53 10.93 0 4.02 2.94 7.35 6.78 7.99 0.3 0.05 0.57-0.2 0.57-0.5v-18.03z"/>
 <path d="m13.44 12.47 5.29-2.22c0.27-0.12 0.4-0.42995 0.27-0.68995-0.37-0.73-0.8-1.44-1.27-2.1-0.14-0.2-0.4-0.26-0.62-0.16l-4.09 1.99c-0.17 0.08-0.28 0.25999-0.28 0.44999v2.27c0.01 0.35 0.37 0.6 0.7 0.46z"/>
 <path d="m19.83 14.31c0.16-0.08 0.26-0.23 0.26-0.4 0-0.64-0.08-1.27-0.22-1.89-0.07-0.3-0.4-0.46-0.68-0.34l-6.14 2.62c-0.18 0.08-0.3 0.26-0.3 0.46v2.2c0 0.37 0.39 0.61 0.72 0.45l5.9-2.87 0.46-0.23z"/>
</svg>
